src/assets/duotone/Ethereum.svg

<svg width="24" height="24" viewBox="0 0 24 24"  xmlns="http://www.w3.org/2000/svg">
<path opacity="0.4" d="M17.5002 11.4894C17.3902 11.5794 17.2802 11.6494 17.1502 11.7094L16.0602 12.2594L12.9902 13.7894C12.4402 14.0694 11.5502 14.0694 11.0102 13.7894L7.94015 12.2594L6.85015 11.7094C6.73015 11.6394 6.62015 11.5794 6.50015 11.4894C5.44015 10.7494 5.25015 9.39937 6.10015 8.32937L10.2702 3.12938C10.5302 2.80938 10.8402 2.56937 11.1602 2.42937C11.7002 2.16938 12.3002 2.16938 12.8302 2.42937C13.1502 2.56937 13.4702 2.80938 13.7202 3.12938L17.8902 8.32937C18.7502 9.40937 18.5602 10.7594 17.5002 11.4894Z" />
<path d="M17.5 11.4891C17.39 11.5791 17.28 11.6491 17.15 11.7091L16.06 12.2591L12 9.20914L7.94 12.2691L6.85 11.7191C6.73 11.6491 6.62 11.5891 6.5 11.4991C6.54 11.3091 6.64 11.1391 6.81 11.0191L11.16 7.74914V2.43914C11.7 2.17914 12.3 2.17914 12.83 2.43914V7.74914L17.18 11.0191C17.35 11.1391 17.45 11.2991 17.5 11.4891Z" />
<path d="M8.77011 14.4301L10.3801 15.1501C11.4101 15.6101 12.5901 15.6101 13.6301 15.1501L15.2401 14.4301C16.6801 13.7901 18.0101 15.5301 17.0101 16.7501L13.5501 20.9801C12.7001 22.0201 11.3101 22.0201 10.4501 20.9801L7.00011 16.7501C5.99011 15.5301 7.32011 13.7901 8.77011 14.4301Z" />
</svg>

<?xml version="1.0" encoding="UTF-8"?>
<svg width="24" height="24" viewBox="0 0 24 24" xmlns="http://www.w3.org/2000/svg">
 <path d="m17.5 11.489c-0.11 0.09-0.22 0.16-0.35 0.22l-1.09 0.55-3.07 1.53c-0.55 0.28-1.44 0.28-1.98 0l-3.07-1.53-1.09-0.55c-0.12-0.07-0.23-0.13-0.35-0.22-1.06-0.74-1.25-2.09-0.4-3.16l4.17-5.2c0.26-0.32 0.57-0.56001 0.89-0.70001 0.54-0.25999 1.14-0.25999 1.67 0 0.32 0.14 0.64 0.38001 0.89 0.70001l4.17 5.2c0.86 1.08 0.67 2.43-0.39 3.16z" opacity=".4"/>
 <path d="m17.5 11.489c-0.11 0.09-0.22 0.16-0.35 0.22l-1.09 0.55-4.06-3.05-4.06 3.06-1.09-0.55c-0.12-0.07-0.23-0.13-0.35-0.22 0.04-0.19 0.14-0.36 0.31-0.48l4.35-3.27v-5.31c0.54-0.26 1.14-0.26 1.67 0v5.31l4.35 3.27c0.17 0.12 0.27 0.28 0.32 0.47z"/>
 <path d="m8.7701 14.43 1.61 0.72c1.03 0.46 2.21 0.46 3.25 0l1.61-0.72c1.44-0.64 2.77 1.1 1.77 2.32l-3.46 4.23c-0.85 1.04-2.24 1.04-3.1 0l-3.45-4.23c-1.01-1.22 0.32-2.96 1.77-2.32z"/>
</svg>
